kora-light/actions/scalable/distribute-unclump.svg

<svg xmlns="http://www.w3.org/2000/svg" style="fill-rule:evenodd;clip-rule:evenodd;stroke-linejoin:round;stroke-miterlimit:2" width="100%" height="100%" version="1.1" viewBox="0 0 16 16" xml:space="preserve">
 <defs>
  <style id="current-color-scheme" type="text/css">
   .ColorScheme-Text { color:#444444; } .ColorScheme-Highlight { color:#4285f4; } .ColorScheme-NeutralText { color:#ff9800; } .ColorScheme-PositiveText { color:#4caf50; } .ColorScheme-NegativeText { color:#f44336; }
  </style>
 </defs>
 <rect style="fill:currentColor;fill-opacity:0.3" class="ColorScheme-Text" width="4" height="14" x="0" y="1"/>
 <path style="fill:currentColor;" class="ColorScheme-Text" d="M10,11l0,4l5,0l0,-4l-5,0Zm-5,2l0,1l4,0l0,-1l-4,0Zm7,-7l0,4l1,0l0,-4l-1,0Zm-2,-5l0,4l5,0l0,-4l-5,0Zm-5,1l0,1l4,0l0,-1l-4,0Z"/>
</svg>

<svg xmlns="http://www.w3.org/2000/svg" width="16" height="16" version="1.1">
 <defs>
  <style id="current-color-scheme" type="text/css">
   .ColorScheme-Text { color:#444444; } .ColorScheme-Highlight { color:#4285f4; }
  </style>
 </defs>
 <path style="fill:currentColor" class="ColorScheme-Text" d="M 0,1 V 15 H 4 V 1 Z M 10,1 V 5 H 15 V 1 Z M 5,2 V 3 H 9 V 2 Z M 12,6 V 10 H 13 V 6 Z M 10,11 V 15 H 15 V 11 Z M 5,13 V 14 H 9 V 13 Z"/>
</svg>
